assets/icons/document/new.svg

<?xml version="1.0" encoding="UTF-8" standalone="no"?>
<svg
   viewBox="0 0 24 24"
   height="24"
   id="svg7384"
   version="1.1"
   width="24"
   sodipodi:docname="new.svg"
   inkscape:version="1.2 (1:1.2.1+202207142221+cd75a1ee6d)"
   xmlns:inkscape="http://www.inkscape.org/namespaces/inkscape"
   xmlns:sodipodi="http://sodipodi.sourceforge.net/DTD/sodipodi-0.dtd"
   xmlns="http://www.w3.org/2000/svg"
   xmlns:svg="http://www.w3.org/2000/svg"
   xmlns:rdf="http://www.w3.org/1999/02/22-rdf-syntax-ns#"
   xmlns:cc="http://creativecommons.org/ns#"
   xmlns:dc="http://purl.org/dc/elements/1.1/">
  <sodipodi:namedview
     id="namedview21"
     pagecolor="#ffffff"
     bordercolor="#666666"
     borderopacity="1.0"
     inkscape:pageshadow="2"
     inkscape:pageopacity="0.0"
     inkscape:pagecheckerboard="0"
     showgrid="true"
     width="24px"
     inkscape:zoom="27.999993"
     inkscape:cx="7.6428591"
     inkscape:cy="13.982146"
     inkscape:window-width="1920"
     inkscape:window-height="1016"
     inkscape:window-x="0"
     inkscape:window-y="0"
     inkscape:window-maximized="1"
     inkscape:current-layer="svg7384"
     inkscape:showpageshadow="2"
     inkscape:deskcolor="#d1d1d1">
    <inkscape:grid
       type="xygrid"
       id="grid837"
       dotted="false" />
    <inkscape:grid
       type="xygrid"
       id="grid839"
       dotted="true"
       spacingx="0.5"
       spacingy="0.5"
       empspacing="10" />
  </sodipodi:namedview>
  <metadata
     id="metadata20854">
    <rdf:RDF>
      <cc:Work
         rdf:about="">
        <dc:format>image/svg+xml</dc:format>
        <dc:type
           rdf:resource="http://purl.org/dc/dcmitype/StillImage" />
      </cc:Work>
    </rdf:RDF>
  </metadata>
  <defs
     id="defs7386">
    <linearGradient
       id="linearGradient5606"
       inkscape:swatch="solid">
      <stop
         id="stop5608"
         offset="0"
         style="stop-color:#000000;stop-opacity:1;" />
    </linearGradient>
    <linearGradient
       id="linearGradient4526"
       inkscape:swatch="solid">
      <stop
         id="stop4528"
         offset="0"
         style="stop-color:#ffffff;stop-opacity:1;" />
    </linearGradient>
    <linearGradient
       id="linearGradient3600-4"
       inkscape:swatch="gradient">
      <stop
         id="stop3602-7"
         offset="0"
         style="stop-color:#f4f4f4;stop-opacity:1" />
      <stop
         id="stop3604-6"
         offset="1"
         style="stop-color:#dbdbdb;stop-opacity:1" />
    </linearGradient>
  </defs>
  <g
     id="layer9"
     label="status"
     style="display:inline"
     transform="translate(-613.0002,327)" />
  <g
     id="layer4"
     style="display:inline"
     transform="translate(-372,-39.999996)" />
  <g
     id="g1812"
     style="display:inline"
     transform="translate(-372,-39.999996)" />
  <g
     id="g6217"
     style="display:inline"
     transform="translate(-372,-39.999996)" />
  <g
     id="layer3"
     style="display:inline"
     transform="translate(-372,-39.999996)" />
  <g
     id="g1833"
     style="display:inline"
     transform="translate(-372,-39.999996)" />
  <g
     id="layer1"
     style="display:inline"
     transform="translate(-372,-39.999996)" />
  <path
     id="path874"
     style="color:#000000;fill:#808080;fill-opacity:1"
     d="M 6.4550781 2 C 5.4864982 2.0089807 4.7372585 2.0732697 4.1171875 2.4453125 C 3.7038068 2.693341 3.3972495 3.1012205 3.2285156 3.6074219 C 3.0597819 4.1136233 3 4.7222238 3 5.5 L 3 18.5 C 3 19.277776 3.0585582 19.89131 3.25 20.408203 C 3.4414419 20.925097 3.8029639 21.335075 4.2773438 21.572266 C 5.2261035 22.046645 6.500004 22 8.5 22 L 14 22 L 14 21 L 8.5 21 C 6.500004 21 5.2738936 20.95335 4.7226562 20.677734 C 4.4470376 20.539926 4.3085575 20.387402 4.1875 20.060547 C 4.0664425 19.733691 4 19.22222 4 18.5 L 4 5.5 C 4 4.7777792 4.0652191 4.2613751 4.1777344 3.9238281 C 4.29025 3.5862813 4.4211944 3.4316584 4.6328125 3.3046875 C 5.0560486 3.0507459 6.000003 3 7.5 3 L 14 3 L 14 8 L 19 8 L 19 14 L 20 14 L 20 7.2929688 L 14.707031 2 L 7.5 2 C 7.1250007 2 6.7779381 1.9970064 6.4550781 2 z " />
  <path
     id="rect961"
     style="fill:#808080;fill-opacity:1;fill-rule:evenodd;stroke-linecap:round"
     d="m 18,15 v 3 h -3 v 1 h 3 v 3 h 1 v -3 h 3 v -1 h -3 v -3 z" />
  <rect
     style="fill:#808080;fill-rule:evenodd;stroke-width:0.5;stroke-linecap:square;fill-opacity:1"
     id="rect1419"
     width="5"
     height="1"
     x="7"
     y="17" />
  <path
     id="rect1443"
     style="fill:#808080;fill-rule:evenodd;stroke-width:0.5;stroke-linecap:square;fill-opacity:1"
     d="M 7 15 L 7 16 L 14 16 L 14 15 L 7 15 z " />
  <rect
     style="fill:#808080;fill-rule:evenodd;stroke-width:0.5;stroke-linecap:square;fill-opacity:1"
     id="rect1445"
     width="9"
     height="1"
     x="7"
     y="13" />
  <rect
     style="fill:#808080;fill-rule:evenodd;stroke-width:0.5;stroke-linecap:square;fill-opacity:1"
     id="rect1447"
     width="9"
     height="1"
     x="7"
     y="11" />
</svg>

<svg height="24" width="24" xmlns="http://www.w3.org/2000/svg"><path style="color:#000;fill:gray;fill-opacity:1" d="M6.455 2c-.969.009-1.718.073-2.338.445-.413.248-.72.656-.888 1.162C3.059 4.114 3 4.722 3 5.5v13c0 .778.059 1.391.25 1.908.191.517.553.927 1.027 1.164.95.475 2.223.428 4.223.428H14v-1H8.5c-2 0-3.226-.047-3.777-.322-.276-.138-.414-.29-.535-.617C4.066 19.734 4 19.222 4 18.5v-13c0-.722.065-1.239.178-1.576.112-.338.243-.492.455-.62C5.056 3.052 6 3 7.5 3H14v5h5v6h1V7.293L14.707 2H7.5c-.375 0-.722-.003-1.045 0z"/><path style="fill:gray;fill-opacity:1;stroke-linecap:round" d="M18 15v3h-3v1h3v3h1v-3h3v-1h-3v-3z"/><path style="fill:gray;stroke-width:.5;stroke-linecap:square;fill-opacity:1" d="M7 17h5v1H7zm0-2v1h7v-1H7zm0-2h9v1H7zm0-2h9v1H7z"/></svg>
